X: 1
T: the Witch Under the Stairs
C: Jonathan Jensen 1995
R: jig
S: http://www.boesstrings.com/celtic_tunes/jigs/Witch%20Under%20the%20Stairs.jpg
Z: 2016 John Chambers <jc:trillian.mit.edu>
M: 6/8
L: 1/8
K: Am
EAc |\
"Am"e2c A2c | ^D3 EAc | e2c ^G2A | "E7" B3 E^GB |\
"G"d2B =G2B | "Bm"^F2B "Dm"=F2B | "E7"E2^G BcB | "Am"A3 :|
|: Ace |\
"Dm"a2d "G7"fed | "C"g2c edc | "Dm"f2B "E7"dcB | "Am"e3 Ace |\
"Dm"a2d fed | "Am"edc "Dm"dcB | "D#o"cBA | "E7"BA^G | "Am"A3 :|
